svg/fluentui-system-icons/ic_fluent_smartwatch_dot_20_regular.svg

<svg width="20" height="20" viewBox="0 0 20 20" fill="none" xmlns="http://www.w3.org/2000/svg">
<path d="M16.5 2C17.8807 2 19 3.11929 19 4.5C19 5.88071 17.8807 7 16.5 7C15.1193 7 14 5.88071 14 4.5C14 3.11929 15.1193 2 16.5 2ZM13.5068 2.68491C13.1402 2.26518 12.6011 2 12 2H8C6.89542 2 6 2.89551 6 4V5.26758C5.40219 5.61353 5 6.25977 5 7V13C5 13.7402 5.40219 14.3865 6 14.7324V16C6 17.1045 6.89542 18 8 18H12C13.1046 18 14 17.1045 14 16V14.7324C14.5978 14.3865 15 13.7402 15 13V11C15.5523 11 16 10.5522 16 10V9C16 8.44775 15.5523 8 15 8V7.66318C14.6246 7.48486 14.286 7.24169 13.9987 6.94814C13.9996 6.96532 14 6.9826 14 7V13C14 13.5522 13.5523 14 13 14H7C6.44772 14 6 13.5522 6 13V7C6 6.44775 6.44772 6 7 6H13C13.1314 6 13.2568 6.02533 13.3717 6.07138C13.1339 5.59887 13 5.06507 13 4.5C13 3.83544 13.1852 3.21414 13.5068 2.68491ZM13 4.5V5H7V4C7 3.44775 7.44772 3 8 3H12C12.5523 3 13 3.44775 13 4V4.5ZM7 15H13V16C13 16.5522 12.5523 17 12 17H8C7.44772 17 7 16.5522 7 16V15Z" fill="#212121"/>
</svg>

<svg xmlns="http://www.w3.org/2000/svg" width="20" height="20"><path d="M16.5 2a2.5 2.5 0 1 1 0 5 2.5 2.5 0 0 1 0-5Zm-2.993.685A1.995 1.995 0 0 0 12 2H8a2 2 0 0 0-2 2v1.268A2 2 0 0 0 5 7v6a2 2 0 0 0 1 1.732V16a2 2 0 0 0 2 2h4a2 2 0 0 0 2-2v-1.268A2 2 0 0 0 15 13v-2a1 1 0 0 0 1-1V9a1 1 0 0 0-1-1v-.337a3.508 3.508 0 0 1-1.001-.715L14 7v6a1 1 0 0 1-1 1H7a1 1 0 0 1-1-1V7a1 1 0 0 1 1-1h6c.131 0 .257.025.372.071A3.486 3.486 0 0 1 13 4.5c0-.665.185-1.286.507-1.815ZM13 4.5V5H7V4a1 1 0 0 1 1-1h4a1 1 0 0 1 1 1v.5ZM7 15h6v1a1 1 0 0 1-1 1H8a1 1 0 0 1-1-1v-1Z"/></svg>
